packages/icons/svg/Media_Camera_32px.svg

<svg xmlns="http://www.w3.org/2000/svg" viewBox="0 0 32 32"><path d="M16 23a6 6 0 116-6 6 6 0 01-6 6zm0-10a4 4 0 104 4 4 4 0 00-4-4z"/><path d="M20.24 7l1.66 1.48a4 4 0 002.66 1H27V25H5V9.5h2.44a4 4 0 002.66-1L11.76 7h8.48m0-2h-8.48a2 2 0 00-1.33.51L8.77 7a2 2 0 01-1.33.51H5a2 2 0 00-2 2V25a2 2 0 002 2h22a2 2 0 002-2V9.5a2 2 0 00-2-2h-2.44a2 2 0 01-1.33-.5l-1.66-1.49A2 2 0 0020.24 5z"/><path d="M8 13a1 1 0 110-2 1 1 0 010 2z"/></svg>

<svg xmlns="http://www.w3.org/2000/svg" viewBox="0 0 32 32"><defs></defs><g id="Icon"><path  d="M16,23a6,6,0,1,1,6-6A6,6,0,0,1,16,23Zm0-10a4,4,0,1,0,4,4A4,4,0,0,0,16,13Z"/><path  d="M20.24,7h0L21.9,8.48a4,4,0,0,0,2.66,1H27V25H5V9.5H7.44a4,4,0,0,0,2.66-1L11.76,7h8.48m0-2H11.76a2,2,0,0,0-1.33.51L8.77,7a2,2,0,0,1-1.33.51H5a2,2,0,0,0-2,2V25a2,2,0,0,0,2,2H27a2,2,0,0,0,2-2V9.5a2,2,0,0,0-2-2H24.56A2,2,0,0,1,23.23,7L21.57,5.51A2,2,0,0,0,20.24,5Z"/><path  d="M8,13a1,1,0,1,1,0-2H8a1,1,0,0,1,0,2Z"/></g></svg>
